icons/3_Generic/Computer.svg

<svg xmlns="http://www.w3.org/2000/svg" width="1024" height="1024" fill="none">
   <g clip-path="url(#a)">
      <path fill="#8C72BD" d="M512 1024c282.77 0 512-229.23 512-512S794.77 0 512 0 0 229.23 0 512s229.23 512 512 512Z"/>
      <path fill="#fff" d="M700.24 309.82H323.77c-28.59 0-51.76 23.18-51.76 51.76v263.53c0 28.59 23.18 51.76 51.76 51.76h174.12v47.06h-61.18c-7.8 0-14.12 6.32-14.12 14.12 0 7.8 6.32 14.12 14.12 14.12H587.3c7.8 0 14.12-6.32 14.12-14.12 0-7.8-6.32-14.12-14.12-14.12h-61.18v-47.06h174.12c28.59 0 51.76-23.18 51.76-51.76V361.58c0-28.59-23.18-51.76-51.76-51.76Zm-376.47 28.24h376.47c12.99 0 23.53 10.53 23.53 23.53v192.94H300.24V361.59c0-12.99 10.53-23.53 23.53-23.53Zm376.47 310.59H323.77c-12.99 0-23.53-10.53-23.53-23.53v-42.35h423.53v42.35c0 12.99-10.53 23.53-23.53 23.53Z"/>
   </g>
   <defs>
      <clipPath id="a">
         <path fill="#fff" d="M0 0h1024v1024H0z"/>
      </clipPath>
   </defs>
</svg>

<svg width="1024" height="1024" viewBox="0 0 1024 1024" fill="none" xmlns="http://www.w3.org/2000/svg">
<g clip-path="url(#clip0_3_467)">
<path d="M512 1024C794.77 1024 1024 794.77 1024 512C1024 229.23 794.77 0 512 0C229.23 0 0 229.23 0 512C0 794.77 229.23 1024 512 1024Z" fill="#8C72BD"/>
<path d="M700.24 309.82H323.77C295.18 309.82 272.01 333 272.01 361.58V625.11C272.01 653.7 295.19 676.87 323.77 676.87H497.89V723.93H436.71C428.91 723.93 422.59 730.25 422.59 738.05C422.59 745.85 428.91 752.17 436.71 752.17H587.3C595.1 752.17 601.42 745.85 601.42 738.05C601.42 730.25 595.1 723.93 587.3 723.93H526.12V676.87H700.24C728.83 676.87 752 653.69 752 625.11V361.58C752 332.99 728.82 309.82 700.24 309.82ZM323.77 338.06H700.24C713.23 338.06 723.77 348.59 723.77 361.59V554.53H300.24V361.59C300.24 348.6 310.77 338.06 323.77 338.06ZM700.24 648.65H323.77C310.78 648.65 300.24 638.12 300.24 625.12V582.77H723.77V625.12C723.77 638.11 713.24 648.65 700.24 648.65Z" fill="white"/>
</g>
<defs>
<clipPath id="clip0_3_467">
<rect width="1024" height="1024" fill="white"/>
</clipPath>
</defs>
</svg>
